assets/features/channel/east-asia/paypay.svg

<svg width="80" height="80" viewBox="0 0 80 80" fill="none" xmlns="http://www.w3.org/2000/svg">
<rect width="80" height="80" rx="8" fill="#FF0033"/>
<path d="M27.7866 59.9929H25.9158C22.6613 59.9929 19.9998 57.3319 19.9998 54.078V32.5146C25.3087 31.9781 30.2576 31.9922 34.5993 32.4087L27.7866 59.9929ZM51.8462 41.3517C52.7852 37.5331 46.622 33.9968 36.7596 32.6628L33.1803 47.556C41.4472 47.9513 50.8367 45.4597 51.8462 41.3517ZM54.0842 20H25.9158C22.7672 20 20.1833 22.4916 20.0139 25.5973C43.6005 24.9338 55.0725 33.1357 53.2723 41.3164C51.6486 48.6783 44.1652 51.5017 32.0084 52.4334L30.187 60H54.0842C57.3387 60 60.0002 57.339 60.0002 54.0851V25.9149C60.0002 22.661 57.3387 20 54.0842 20Z" fill="#FF0033"/>
<path d="M27.7866 59.9929H25.9158C22.6613 59.9929 19.9998 57.3319 19.9998 54.078V32.5146C25.3087 31.9781 30.2576 31.9922 34.5993 32.4087L27.7866 59.9929ZM51.8462 41.3517C52.7852 37.5331 46.622 33.9968 36.7596 32.6628L33.1803 47.556C41.4472 47.9513 50.8367 45.4597 51.8462 41.3517ZM54.0842 20H25.9158C22.7672 20 20.1833 22.4916 20.0139 25.5973C43.6005 24.9338 55.0725 33.1357 53.2723 41.3164C51.6486 48.6783 44.1652 51.5017 32.0084 52.4334L30.187 60H54.0842C57.3387 60 60.0002 57.339 60.0002 54.0851V25.9149C60.0002 22.661 57.3387 20 54.0842 20Z" fill="white"/>
</svg>

<svg xmlns="http://www.w3.org/2000/svg" width="80" height="80" fill="none" viewBox="0 0 80 80"><rect width="80" height="80" fill="#f03" rx="8"/><path fill="#f03" d="M27.787 59.993h-1.871c-3.255 0-5.916-2.661-5.916-5.915V32.515c5.309-.537 10.258-.523 14.6-.106zm24.06-18.641c.938-3.819-5.225-7.355-15.087-8.69l-3.58 14.894c8.267.395 17.657-2.096 18.666-6.204M54.083 20H25.916c-3.149 0-5.733 2.492-5.902 5.597 23.586-.663 35.058 7.539 33.258 15.72-1.623 7.361-9.107 10.185-21.264 11.116L30.187 60h23.897C57.34 60 60 57.339 60 54.085v-28.17C60 22.66 57.34 20 54.084 20"/><path fill="#fff" d="M27.787 59.993h-1.871c-3.255 0-5.916-2.661-5.916-5.915V32.515c5.309-.537 10.258-.523 14.6-.106zm24.06-18.641c.938-3.819-5.225-7.355-15.087-8.69l-3.58 14.894c8.267.395 17.657-2.096 18.666-6.204M54.083 20H25.916c-3.149 0-5.733 2.492-5.902 5.597 23.586-.663 35.058 7.539 33.258 15.72-1.623 7.361-9.107 10.185-21.264 11.116L30.187 60h23.897C57.34 60 60 57.339 60 54.085v-28.17C60 22.66 57.34 20 54.084 20"/></svg>
